rospo-light/32x32/apps/hashit.svg

<?xml version="1.0" encoding="UTF-8" standalone="no"?>
<svg
   xmlns:dc="http://purl.org/dc/elements/1.1/"
   xmlns:cc="http://creativecommons.org/ns#"
   xmlns:rdf="http://www.w3.org/1999/02/22-rdf-syntax-ns#"
   xmlns:svg="http://www.w3.org/2000/svg"
   xmlns="http://www.w3.org/2000/svg"
   xmlns:sodipodi="http://sodipodi.sourceforge.net/DTD/sodipodi-0.dtd"
   xmlns:inkscape="http://www.inkscape.org/namespaces/inkscape"
   height="32"
   width="32"
   version="1.1"
   viewBox="0 0 32 32"
   id="svg16"
   sodipodi:docname="hashit.svg"
   inkscape:version="0.92.1 r">
  <metadata
     id="metadata22">
    <rdf:RDF>
      <cc:Work
         rdf:about="">
        <dc:format>image/svg+xml</dc:format>
        <dc:type
           rdf:resource="http://purl.org/dc/dcmitype/StillImage" />
      </cc:Work>
    </rdf:RDF>
  </metadata>
  <defs
     id="defs20" />
  <sodipodi:namedview
     pagecolor="#ffffff"
     bordercolor="#666666"
     borderopacity="1"
     objecttolerance="10"
     gridtolerance="10"
     guidetolerance="10"
     inkscape:pageopacity="0"
     inkscape:pageshadow="2"
     inkscape:window-width="640"
     inkscape:window-height="480"
     id="namedview18"
     showgrid="false"
     inkscape:zoom="8.9375"
     inkscape:cx="-5.2587413"
     inkscape:cy="16"
     inkscape:current-layer="svg16" />
  <rect
     style="opacity:1;fill:#6ea23d;fill-opacity:1;fill-rule:evenodd;stroke:none;stroke-width:1.03534329;stroke-linecap:round;stroke-linejoin:bevel;stroke-miterlimit:4;stroke-dasharray:none;stroke-dashoffset:0;stroke-opacity:1"
     id="rect4497-3-3"
     width="28.203388"
     height="28.203388"
     x="1.8983059"
     y="1.8983059"
     ry="5.575182" />
  <g
     id="g4508"
     transform="translate(3.5955e-4)">
    <path
       id="path10"
       d="m 13,7 h 3 L 12,25 H 9 Z"
       style="fill:#ffffff"
       inkscape:connector-curvature="0" />
    <path
       id="path12"
       d="m 20,7 h 3 l -4,18 h -3 z"
       style="fill:#ffffff"
       inkscape:connector-curvature="0" />
    <path
       id="path14"
       d="M 8.2223281,11 7.5543594,14 H 25.355078 l 0.644531,-2.896484 V 11 Z M 6.6656875,18 5.9996719,21 H 23.80039 l 0.666016,-3 z"
       style="fill:#ffffff"
       inkscape:connector-curvature="0" />
  </g>
</svg>

<svg xmlns="http://www.w3.org/2000/svg" height="32" width="32" version="1.1" viewBox="0 0 32 32">
 <path style="opacity:.2" d="m16 3a14 14 0 0 0 -14 14 14 14 0 0 0 14 14 14 14 0 0 0 14 -14 14 14 0 0 0 -14 -14z"/>
 <path style="fill:#6ea23d" d="m16 2a14 14 0 0 0 -14 14 14 14 0 0 0 14 14 14 14 0 0 0 14 -14 14 14 0 0 0 -14 -14z"/>
 <path style="opacity:.2;fill:#ffffff" d="m16 2a14 14 0 0 0 -14 14 14 14 0 0 0 0.0214844 0.414062 14 14 0 0 1 13.978516 -13.414062 14 14 0 0 1 13.978516 13.585938 14 14 0 0 0 0.021484 -0.585938 14 14 0 0 0 -14 -14z"/>
 <path style="opacity:.2" d="m13 8-0.888672 4h-3.8886718l-0.6679687 3h3.8906245l-0.890624 4h-3.8886724l-0.6660156 3h3.8886719l-0.8886719 4h3l0.888672-4h4l-0.888672 4h3l0.888672-4h3.912109l0.666016-3h-3.912109l0.890624-4h3.910157l0.644531-2.896484v-0.103516h-3.888672l0.888672-4h-3l-0.888672 4h-4l0.888672-4h-3zm1.445312 7h4l-0.890624 4h-4l0.890624-4z"/>
 <path style="fill:#ffffff" d="m13 7h3l-4 18h-3z"/>
 <path style="fill:#ffffff" d="m20 7h3l-4 18h-3z"/>
 <path style="fill:#ffffff" d="m8.2223281 11-0.6679687 3h17.800719l0.644531-2.896484v-0.103516zm-1.5566406 7-0.6660156 3h17.800718l0.666016-3z"/>
</svg>
